X: 25170
T: Major Graham
R: strathspey
M: 4/4
K: Dmajor
(D>B,)|:A,>B, D<D D2 (d>B)|A<F E>D E2 (E>F)|A,>B, D<D D2 (d>B)|1 A<F E>F D2 (D>B,):|2 A<F E>F D2 (AB/c/)||
d>ed>c B>A B<d|A<F E>D E2 (AB/c/)|d>ed>c B<A B<d|A<F E>F D2 (AB/c/)|
d>ed>c B>A B<d|A<F E>D E2 (E>F)|A,>B, D<D D2 (d>B)|A<F E>F D2||

